X:583
T:Behind the bush in the garden
T:We have no king but Charley
T:Royal Charlie
R:Single Jig
O:Ireland
S:O'Neill's 1114
B:O'Neill's 1114
Z:Transcription: henrik.norbeck, chords:Mike Long
M:6/8
L:1/8
K:C
(A/B/)|"Am"c2A AGE|c2A AGE|"G"G2G GAE|(G3 E2)B|\
"Am"c2d e2a|"G"g2e d2e|"Am"c2A "G"BAG|"Am"A3 A2:|
(A/B/)|"Am"c2B c2d|efe e2d|c2B c2d|"G"e3 G2G|\
"Am"c2B c2d|efe e2d|"Am"cBA "G"BAG|"Am"A3 A2||
(A/B/)|"Am"c2B c2d|efe e2d|c2B c2d|"G"e3 G2G|\
"Am"c2d e2a|"G"g2e d2e|"Am"c2A "G"BAG|"Am"A3 A2|]
